icons/src/scalable/default/devices/media-optical-data-symbolic.svg

<svg xmlns="http://www.w3.org/2000/svg" viewBox="0 0 16 16">
  <defs id="defs3051">
    <style type="text/css" id="current-color-scheme">
      .ColorScheme-Text {
        color:#4d4d4d;
      }
      </style>
  </defs>
 <path 
     style="fill:#bebebe;fill-opacity:1;stroke:none" 
     class="ColorScheme-Text"
     d="M 8,0.5 C 3.845,0.5 0.5,3.845 0.5,8 c 0,4.155 3.345,7.5 7.5,7.5 4.155,0 7.5,-3.345 7.5,-7.5 C 15.5,3.845 12.155,0.5 8,0.5 Z m 5.192871,5.1654052 c 0.27841,-0.034184 0.5698,0.023951 0.778199,0.1867677 0.416793,0.3256327 0.50691,1.0681922 0.181274,1.4849855 l -0.216065,0.2783203 -1.73767,2.2229007 C 11.764424,10.394106 10.774962,10.516089 10.219239,10.081909 9.663515,9.6477266 9.5415275,8.6582666 9.9757081,8.1025391 l 1.7376709,-2.2229005 0.276489,0.2160645 -1.73584,2.2229007 c -0.3256355,0.4167928 -0.235515,1.159349 0.181274,1.4849849 0.416797,0.3256333 1.15935,0.2355193 1.484986,-0.181274 L 13.657959,7.3994141 13.874023,7.1210937 C 14.091116,6.8432317 14.031034,6.3475828 13.753174,6.1304932 13.47531,5.9134035 12.979662,5.9753084 12.762573,6.2531739 l -0.216065,0.2764892 -1.30371,1.6680913 -0.216064,0.2783193 c -0.108548,0.1389319 -0.07851,0.3858385 0.06042,0.494385 0.13893,0.10854 0.38584,0.078506 0.494384,-0.060422 l 1.519777,-1.9464111 0.278321,0.2178954 -1.519775,1.9445804 c -0.217092,0.2778656 -0.71091,0.3397734 -0.98877,0.1226803 -0.277864,-0.2170894 -0.339769,-0.7127381 -0.12268,-0.9906 l 0.217894,-0.2783203 1.519776,-1.9445804 c 0.162819,-0.208401 0.42838,-0.3356921 0.70679,-0.369876 z M 8,7.0625 C 8.5193741,7.0625 8.9375,7.4806259 8.9375,8 8.9375,8.5193741 8.5193741,8.9375 8,8.9375 7.4806259,8.9375 7.0625,8.5193741 7.0625,8 7.0625,7.4806259 7.4806259,7.0625 8,7.0625 Z"
     />
</svg>

<svg version="1.1" viewBox="0 0 16 16" xmlns="http://www.w3.org/2000/svg">
 <path d="m8 0.5c-4.155 0-7.5 3.345-7.5 7.5s3.345 7.5 7.5 7.5 7.5-3.345 7.5-7.5-3.345-7.5-7.5-7.5zm5.1929 5.1654c0.27841-0.034184 0.5698 0.023951 0.7782 0.18677 0.41679 0.32563 0.50691 1.0682 0.18127 1.485l-0.21606 0.27832-1.7377 2.2229c-0.43418 0.55573-1.4236 0.67771-1.9794 0.24353-0.55572-0.43418-0.67771-1.4236-0.24353-1.9794l1.7377-2.2229 0.27649 0.21606-1.7358 2.2229c-0.32564 0.41679-0.23552 1.1593 0.18127 1.485 0.4168 0.32563 1.1594 0.23552 1.485-0.18127l1.7377-2.2229 0.21606-0.27832c0.21709-0.27786 0.15701-0.77351-0.12085-0.9906-0.27786-0.21709-0.77351-0.15518-0.9906 0.12268l-0.21606 0.27649-1.3037 1.6681-0.21606 0.27832c-0.10855 0.13893-0.07851 0.38584 0.06042 0.49438 0.13893 0.10854 0.38584 0.078506 0.49438-0.060422l1.5198-1.9464 0.27832 0.2179-1.5198 1.9446c-0.21709 0.27787-0.71091 0.33977-0.98877 0.12268-0.27786-0.21709-0.33977-0.71274-0.12268-0.9906l0.21789-0.27832 1.5198-1.9446c0.16282-0.2084 0.42838-0.33569 0.70679-0.36988zm-5.1929 1.3971c0.51937 0 0.9375 0.41813 0.9375 0.9375s-0.41813 0.9375-0.9375 0.9375-0.9375-0.41813-0.9375-0.9375 0.41813-0.9375 0.9375-0.9375z" fill="#bebebe"/>
</svg>
